X: 9730
T: Deildy Aberteifi
R: jig
M: 6/8
K: Gmajor
GBA G3|GBA GED|E3 A3|ABA GED|
GBA G3|GBA GED|E3 A2G|FEF G3:|
B3 AGE|DBA G3|DEF G2A|BGB A3|
B3 AGE|DBA GED|DEF GAB|DEF G3:|

